X:29
T:The Cock and the Hen (x3)
R:Slip Jig
M:9/8
Q:3/8=80
K:A
A3 A3 A3 |
%
|: F2F FEF c2A | F2F FEF AFE | F2F FEF c2d | ecA BAF AFE :|
|: ecA ABc dfa | ecA ABc BAF | ecA ABc dcB | cBA BAF AFE :|
%
|: F2F FEF c2A | F2F FEF AFE | F2F FEF c2d | ecA BAF AFE :|
|: ecA ABc dfa | ecA ABc BAF | ecA ABc dcB | cBA BAF AFE :|
%
|: F2F FEF c2A | F2F FEF AFE | F2F FEF c2d | ecA BAF AFE :|
|: ecA ABc dfa | ecA ABc BAF | ecA ABc dcB | cBA BAF AFE :|

